images_sukapura_svg/cmd/lc_editstyle.svg

<svg viewBox="0 0 24 24" xmlns="http://www.w3.org/2000/svg"><path d="m14.525172 15.797124h-7.0460016l-1.4339231 4.202878h-3.040906l6.6133524-17.9982077h2.8431233l6.539184 17.9982077h-3.053267zm-6.1807031-2.509366h5.3277661l-2.608257-7.6887945h-.07417z" fill="#4b4b4f" transform="matrix(.84397895 0 0 .88897741 -.535601 .22045)"/><g fill="#eac282" transform="translate(-2.602597 -1.200058)"><path d="m11.794252 19.654584-.794252 3.345416 2.979799-.95479z" fill="#a2a2a7" stroke="#848489" transform="translate(1 1)"/><path d="m21.527817 11.706205c-.189562 0-.378184.07172-.523438.216797l-1.673828 1.669922 2.847656 2.849609 1.710938-1.638672c.290506-.290127.290506-.756747 0-1.046875l-1.835938-1.833984c-.145254-.145064-.335828-.216797-.52539-.216797z" fill="#e68497" stroke="#b6496c"/><path d="m17.588364 13.317533-5.439453 5.433594c.648096.793958 1.89093 2.102781 2.714843 2.957031l.05078-.01367 5.509765-5.544922z" fill="#fc0" stroke="#c89e00" transform="translate(1 1)"/><path d="m21.093491 16.135775-1.284233-1.373643-6.299585 6.125687 1.263119 1.338035z" fill="#ffe014"/><path d="m20.379082 13.977391 1.118644-1.067797 1.703389 1.677967" fill="none" stroke="#f398b3"/></g></svg>

<?xml version="1.0" encoding="UTF-8" standalone="no"?>
<svg
   xmlns:dc="http://purl.org/dc/elements/1.1/"
   xmlns:cc="http://creativecommons.org/ns#"
   xmlns:rdf="http://www.w3.org/1999/02/22-rdf-syntax-ns#"
   xmlns:svg="http://www.w3.org/2000/svg"
   xmlns="http://www.w3.org/2000/svg"
   xmlns:sodipodi="http://sodipodi.sourceforge.net/DTD/sodipodi-0.dtd"
   xmlns:inkscape="http://www.inkscape.org/namespaces/inkscape"
   viewBox="0 0 24 24"
   version="1.1"
   id="svg16"
   sodipodi:docname="lc_editstyle.svg"
   inkscape:version="0.92.3 (2405546, 2018-03-11)">
  <metadata
     id="metadata22">
    <rdf:RDF>
      <cc:Work
         rdf:about="">
        <dc:format>image/svg+xml</dc:format>
        <dc:type
           rdf:resource="http://purl.org/dc/dcmitype/StillImage" />
      </cc:Work>
    </rdf:RDF>
  </metadata>
  <defs
     id="defs20" />
  <sodipodi:namedview
     pagecolor="#ffffff"
     bordercolor="#666666"
     borderopacity="1"
     objecttolerance="10"
     gridtolerance="10"
     guidetolerance="10"
     inkscape:pageopacity="0"
     inkscape:pageshadow="2"
     inkscape:window-width="1366"
     inkscape:window-height="716"
     id="namedview18"
     showgrid="false"
     inkscape:zoom="9.8333333"
     inkscape:cx="-6.7627119"
     inkscape:cy="12"
     inkscape:window-x="-8"
     inkscape:window-y="-8"
     inkscape:window-maximized="1"
     inkscape:current-layer="svg16" />
  <g
     aria-label="A"
     style="font-style:normal;font-weight:normal;font-size:25.3161602px;line-height:1.25;font-family:sans-serif;letter-spacing:0px;word-spacing:0px;fill:#4b4b4f;fill-opacity:1;stroke:none;stroke-width:0.63290399"
     id="text14271"
     transform="matrix(0.84397895,0,0,0.88897741,-0.53560082,0.22045009)">
    <path
       inkscape:connector-curvature="0"
       d="M 14.525172,15.797124 H 7.4791704 L 6.0452473,20.000002 H 3.0043413 L 9.6176937,2.0017943 H 12.460817 L 19.000001,20.000002 H 15.946734 Z M 8.3444689,13.287758 H 13.672235 L 11.063978,5.5989635 h -0.07417 z"
       style="font-style:normal;font-variant:normal;font-weight:500;font-stretch:normal;font-family:Roboto;-inkscape-font-specification:'Roboto Medium';fill:#4b4b4f;fill-opacity:1;stroke-width:0.63290399"
       id="path15704" />
  </g>
  <g
     fill="#eac282"
     transform="translate(-2.602597 -1.200058)"
     id="g14">
    <path
       d="m11.794252 19.654584-.794252 3.345416 2.979799-.95479z"
       fill="#a2a2a7"
       stroke="#848489"
       transform="translate(1 1)"
       id="path4" />
    <path
       d="m21.527817 11.706205c-.189562 0-.378184.07172-.523438.216797l-1.673828 1.669922 2.847656 2.849609 1.710938-1.638672c.290506-.290127.290506-.756747 0-1.046875l-1.835938-1.833984c-.145254-.145064-.335828-.216797-.52539-.216797z"
       fill="#e68497"
       stroke="#b6496c"
       id="path6" />
    <path
       d="m17.588364 13.317533-5.439453 5.433594c.648096.793958 1.89093 2.102781 2.714843 2.957031l.05078-.01367 5.509765-5.544922z"
       fill="#fc0"
       stroke="#c89e00"
       transform="translate(1 1)"
       id="path8" />
    <path
       d="m21.093491 16.135775-1.284233-1.373643-6.299585 6.125687 1.263119 1.338035z"
       fill="#ffe014"
       id="path10" />
    <path
       d="m20.379082 13.977391 1.118644-1.067797 1.703389 1.677967"
       fill="none"
       stroke="#f398b3"
       id="path12" />
  </g>
</svg>
